material/.icons/material/lastpass.svg

<svg xmlns="http://www.w3.org/2000/svg" viewBox="0 0 24 24"><path d="M14 12a2 2 0 012-2 2 2 0 012 2 2 2 0 01-2 2 2 2 0 01-2-2m-6 0a2 2 0 012-2 2 2 0 012 2 2 2 0 01-2 2 2 2 0 01-2-2m-6 0a2 2 0 012-2 2 2 0 012 2 2 2 0 01-2 2 2 2 0 01-2-2m20-7h-2v14h2V5z"/></svg>

<?xml version="1.0" encoding="UTF-8"?><!DOCTYPE svg PUBLIC "-//W3C//DTD SVG 1.1//EN" "http://www.w3.org/Graphics/SVG/1.1/DTD/svg11.dtd"><svg xmlns="http://www.w3.org/2000/svg" xmlns:xlink="http://www.w3.org/1999/xlink" version="1.1" id="mdi-lastpass" width="24" height="24" viewBox="0 0 24 24"><path d="M14,12A2,2 0 0,1 16,10A2,2 0 0,1 18,12A2,2 0 0,1 16,14A2,2 0 0,1 14,12M8,12A2,2 0 0,1 10,10A2,2 0 0,1 12,12A2,2 0 0,1 10,14A2,2 0 0,1 8,12M2,12A2,2 0 0,1 4,10A2,2 0 0,1 6,12A2,2 0 0,1 4,14A2,2 0 0,1 2,12M22,5H20V19H22V5Z" /></svg>
